fs/guest_24_filled.svg

<svg viewBox="0 0 24 24" fill="none" xmlns="http://www.w3.org/2000/svg" height="1em" width="1em">
  <path d="M13.7533 2C14.9109 2 15.8641 2.87549 15.9867 4.00046L17.75 4C18.9409 4 19.9156 4.92516 19.9948 6.09595L20 6.25V19.7546C20 20.9455 19.0748 21.9202 17.904 21.9994L17.75 22.0046H6.25C5.05914 22.0046 4.08436 21.0794 4.00519 19.9086L4 19.7546V6.25C4 5.05914 4.92516 4.08436 6.09595 4.00519L6.25 4L8.01334 4.00046C8.13595 2.87549 9.08906 2 10.2467 2H13.7533ZM13.7533 6.4933H10.2467C9.47031 6.4933 8.78594 6.09953 8.38237 5.50082L6.25 5.5C5.8703 5.5 5.55651 5.78215 5.50685 6.14823L5.5 6.25V19.7546C5.5 20.1343 5.78215 20.4481 6.14823 20.4977L6.25 20.5046H17.75C18.1297 20.5046 18.4435 20.2224 18.4932 19.8564L18.5 19.7546V6.25C18.5 5.8703 18.2178 5.55651 17.8518 5.50685L17.75 5.5L15.6176 5.50082C15.2141 6.09953 14.5297 6.4933 13.7533 6.4933ZM14.75 13.9955C15.4404 13.9955 16 14.5552 16 15.2455V15.7448C16 17.5913 14.5279 18.4992 12 18.4992C9.47204 18.4992 8 17.5904 8 15.7428V15.2455C8 14.5552 8.55964 13.9955 9.25 13.9955H14.75ZM12 7.99552C13.3807 7.99552 14.5 9.11481 14.5 10.4955C14.5 11.8762 13.3807 12.9955 12 12.9955C10.6193 12.9955 9.5 11.8762 9.5 10.4955C9.5 9.11481 10.6193 7.99552 12 7.99552ZM13.7533 3.5H10.2467C9.83429 3.5 9.5 3.83429 9.5 4.24665C9.5 4.65902 9.83429 4.9933 10.2467 4.9933H13.7533C14.1657 4.9933 14.5 4.65902 14.5 4.24665C14.5 3.83429 14.1657 3.5 13.7533 3.5Z" fill="#212121"/>
</svg>

<svg viewBox="0 0 24 24" fill="none" xmlns="http://www.w3.org/2000/svg" height="1em" width="1em">
  <path d="M13.753 2c1.158 0 2.111.875 2.234 2h1.763a2.25 2.25 0 0 1 2.245 2.096L20 6.25v13.505a2.25 2.25 0 0 1-2.096 2.244l-.154.006H6.25a2.25 2.25 0 0 1-2.245-2.096L4 19.755V6.25a2.25 2.25 0 0 1 2.096-2.245L6.25 4h1.763a2.247 2.247 0 0 1 2.234-2h3.506Zm0 4.493h-3.506a2.244 2.244 0 0 1-1.865-.992L6.25 5.5a.75.75 0 0 0-.743.648L5.5 6.25v13.505c0 .38.282.693.648.743l.102.007h11.5a.75.75 0 0 0 .743-.649l.007-.101V6.25a.75.75 0 0 0-.648-.743L17.75 5.5h-2.132a2.244 2.244 0 0 1-1.865.993Zm.997 7.502c.69 0 1.25.56 1.25 1.25v.5c0 1.846-1.472 2.754-4 2.754s-4-.909-4-2.756v-.498c0-.69.56-1.25 1.25-1.25h5.5Zm-2.75-6a2.5 2.5 0 1 1 0 5 2.5 2.5 0 0 1 0-5ZM13.753 3.5h-3.506a.747.747 0 1 0 0 1.493h3.506a.747.747 0 1 0 0-1.493Z" fill="#212121"/>
</svg>
